X:1
T:G Major Nehemiah Shumway, 1793
T:Isaac Watts, 1719 (Psalm 50)  86. 86. (C. M.)
T:Judgment No copyright.  Transcribed from The American Harmony, 1793.
%%score [ 1 2 3 4 ]
L:1/8
M:4/4
K:G
V:1 treble nm="Treble" snm="Tr."
V:2 treble nm="Counter" snm="C."
V:3 treble-8 nm="Tenor" snm="T."
V:4 bass nm="Bass" snm="B."
V:1
 B8 | G2 G2 A2 Bc | d6 d>c | B8 | d4 B2 B2 | c4 (B2 c2) | d8- | d4 B4 | c2 c2 B4 | d4 e2 e2 | d8 | %11
w: |||||||||||
 d4 Bc d2 | e4 d4 | d8 | z4 B2 BB | d2 d2 B2 A2 | B4 B4 | c2 BA B2 e2 | d8 |: z8 | z8 | z4 B2 Bc | %22
w: ||||||||||Thun- der and|
 d2 de dc BA | B2 B2 G2 GB | A2 A2 B4- | B4 A2 AA | B2 B2 d2 d2 | d2 z2 B2 B2 | B2 z2 A2 Bc | %29
w: dark- ness, * fire * and *|storm, Lead on the *|dread- ful day.~|* Thun- der and|dark- ness, fire and|storm, fire and|storm, fire and *|
 d4 d2 dc | B2 B2 e2 e2 | d4 c4 | B6 e2 | d6 dc | B8 :| %35
w: storm, * * *||||||
V:2
 D8 | G2 G2 F2 FE | D6 D2 | G8 | G4 G2 G2 | A4 (G2 E2) | F8 | z4 G4 | G2 GA B4 | G4 A2 A2 | A8 | %11
w: 1.~The|Lord, the judge, be- *|fore His|throne|Bids the whole|earth draw *|nigh;|The|na- tions * near|the ris- ing|sun,|
 G4 G2 G2 | G4 F4 | G8 | z4 F2 FF | G2 G2 E2 D2 | E4 G4 | G2 G2 G2 AB | A8 |: z8 | z8 | z8 | %22
w: And near the|west- ern|sky.|Throned on a|cloud our God shall|come, Bright|flames pre- pare His *|way:||||
 z4 D2 DE | F2 F2 G2 GF | E2 E2 D2 D2 | G2 G2 F4 | F2 FE D2 D2 | D2 D2 G2 F2 | G2 G2 E2 E2 | %29
w: Thun- der and|dark- ness, fire and *|storm, Lead on the|dread- ful day.|Thun- der and dark- ness,|fire and storm, Lead|on the dread- ful|
 F4 G2 GG | G2 D2 E2 EF | G4 A4 | G6 G2 | F6 F2 | G8 :| %35
w: day. Thun- der and|dark- ness, fire and *|storm, Lead|on the|dread- ful|day.|
V:3
 G8 | B2 B2 d2 d2 | A6 A2 | B8 | B4 Bc d2 | e4 (3(d2 c2 B2) | A8 | z4 d4 | e2 e2 d4 | B4 c2 cB | %10
w: ||||||||||
 A8 | B4 d2 B2 | (c2 B2) A4 | G8 | z4 d2 dd | d2 d2 g2 fa | g4 d4 | e2 e2 d2 cB | A8 |: z8 | %20
w: ||||||||||
 z4 B2 Bc | d2 d2 g2 g2 | d2 d2 d2 de | d2 d2 d4 | c2 cc B2 B2 | GA Bc d4 | d2 dd G2 G2 | %27
w: Thun- der and|dark- ness, fire and|storm, Lead on the *|dread- ful day.|Thun- der and dark- ness,|fire * and * storm,|Thun- der and dark- ness,|
 AB c2 B2 B2 | B2 cB A2 A2 | A4 B2 Bc | d2 d2 g2 g2 | d4 e4 | d6 cB | A6 A>G | G8 :| %35
w: fire * and storm, Lead|on the * dread- ful|day. * * *||||||
V:4
 G,8 | G,2 G,2 D,2 D,2 | D,6 D,2 | G,8 | G,4 G,2 B,2 | A,4 G,4 | D,8- | D,4 G,4 | C2 C2 B,4 | %9
w: |||||||||
 G,4 A,2 A,2 | D,8 | G,4 G,2 G,2 | C,4 D,4 | [G,,G,]8 | z4 D,2 D,D, | G,2 G,2 E,2 D,2 | G,4 G,4 | %17
w: ||||||||
 C2 B,A, G,2 A,2 | D,8 |: z4 D,2 D,D, | D,2 D,2 G,2 G,2 | G,2 D,2 E,2 E,2 | D,2 D,2 D,4 | %23
w: ||Thun- der and|dark- ness, fire and|storm, Lead on the|dread- ful day.|
 D,2 D,D, G,,2 G,,2 | A,,2 B,,C, D,4 | E,4 D,2 D,2 | D,2 D,2 D,4 | D,4 G,2 D,2 | G,4 A,4 | %29
w: Thun- der and dark- ness,|fire and * storm,|Lead on the|dread- ful day.|Lead on the|dread- ful|
 D,4 G,2 G,G, | G,2 B,2 C2 C2 | B,4 A,4 | G,6 C,2 | D,6 D,2 | G,,8 :| %35
w: day. * * *||||||

